public/line.svg

<?xml version="1.0" encoding="UTF-8"?>
<svg width="126px" height="55px" viewBox="0 0 126 55" version="1.1" xmlns="http://www.w3.org/2000/svg" xmlns:xlink="http://www.w3.org/1999/xlink">
    <title>形状</title>
    <g id="页面-1" stroke="none" stroke-width="1" fill="none" fill-rule="evenodd">
        <g id="phone" transform="translate(-298.000000, -1010.000000)" fill="#000000">
            <g id="52" transform="translate(298.000000, 1010.000000)">
                <path d="M117.396973,6.56877735 C116.467671,5.86547894 115.465424,5.52528627 114.221026,5.96614889 C115.118518,7.45673789 116.352591,6.49588131 117.396973,6.56877735 M107.211795,5.96614889 C105.292737,4.88796137 103.344035,5.42739874 101.399996,5.63220827 C103.33704,5.74399114 105.27475,5.85507001 107.211795,5.96614889 M58.3824951,48.2253504 C61.2873118,48.9169325 63.6573638,48.3726845 65.8034174,46.3175493 C63.0006907,46.8938119 60.8526385,48.2706066 58.3824951,48.2253504 M50.2501074,16.5128091 C49.921188,15.6740605 49.373433,15.8163661 48.8353374,16.0419768 C47.4875171,16.6065062 46.4809404,17.8277537 44.9572522,18.0721372 C44.6902862,18.1150468 44.6020192,18.4760909 44.721263,18.6851076 C44.8633228,18.9330111 45.1945739,19.31199 45.3476255,19.2710918 C46.1988191,19.0439726 47.7061861,18.7628812 47.7358305,18.3976468 C47.8758919,16.6752286 49.3506168,17.0133093 50.2501074,16.5128091 M99.3878418,5.57042515 C94.9496776,4.93030108 90.478205,5.53432075 86.0040678,5.76551298 C80.5296824,6.04876663 75.1264102,7.11168436 69.795417,8.19890636 C64.6694364,9.24447588 59.7641233,11.3904588 54.769877,13.07751 C54.3560214,13.2170668 53.5619516,13.2337278 53.8240879,13.9425743 C53.9931275,14.3987067 54.6408073,14.3730112 55.1071235,14.125158 C56.696429,13.2788499 58.4134718,12.7650913 60.078054,12.1104014 C68.9069182,8.63769055 78.1649597,7.26304127 87.5051063,6.31953291 C91.4514735,5.92032277 95.4263193,5.81132233 99.3878418,5.57042515 M58.2527592,46.4821479 C59.2102063,46.3911326 59.9544802,46.3488935 60.6912598,46.2468155 C66.4084627,45.4511442 71.4861463,38.9625756 67.6914983,32.6037416 C64.9135862,27.9487204 61.2127012,24.2558129 57.198052,20.7484559 C55.903858,19.6175533 54.7995214,19.7611999 53.5882651,20.416577 C51.7559756,21.407353 49.9798106,22.5070791 48.2118061,23.6116661 C47.1874094,24.2517902 45.8367579,24.5788083 45.2668529,25.6902675 C44.7350859,26.7268025 42.9056276,26.281783 43.0443567,27.8793276 C40.6816325,28.7130477 40.9431026,31.2797458 39.844928,32.9502031 C39.5131774,33.4548938 38.5425736,33.8583446 38.893643,34.6982665 C39.3358107,35.7584353 39.6745561,36.8519597 40.4837812,37.7698228 C42.8573306,40.4600536 45.9719896,42.0353053 49.0070417,43.7397886 C51.9450002,45.389294 55.1071235,46.2607276 58.2527592,46.4821479 M59.2143698,17.7749547 C64.0707198,21.4906579 67.7756018,25.6951283 70.5521816,30.6223573 C72.8754354,34.746875 74.5731594,39.1249952 73.441843,44.0639572 C72.4297704,48.4843165 69.480154,51.1440413 65.6062323,53.0692744 C60.6263086,55.5436163 55.7797846,54.5174734 51.2303707,52.2021988 C47.5667909,50.3366368 43.7335054,48.5801927 40.8609977,45.4094079 C37.6209329,41.832658 34.2684527,38.3620088 33.9801694,33.0847985 C33.7441801,28.7596448 35.4770443,25.3563771 38.373534,22.3397987 C41.2212269,19.3738402 44.5543884,17.057057 48.0254462,14.9242655 C46.0947306,12.0874883 42.3738606,12.775517 40.2912592,10.3733504 C39.8091216,9.817252 38.2163188,10.2393584 38.3660396,8.62171678 C38.3998475,8.25237575 37.9873242,8.35788979 37.8044617,8.49813378 C36.009644,9.87278306 34.5955402,7.92051357 32.9219647,7.91079186 C31.3816225,7.90107016 30.0419627,6.94576166 28.7905699,5.94254861 C28.3940346,5.624565 27.5696542,5.56903394 26.844033,5.59749508 C25.3091866,5.65790375 23.6391085,6.31328085 22.2614772,4.93655314 C21.9277281,4.60329975 21.4234404,4.97404875 21.0129157,5.0726235 C20.659015,5.15872765 20.3452508,5.43780767 19.950714,5.21357148 C19.1966141,4.784509 19.195948,4.78521299 18.908997,5.6794256 C16.6195178,3.8111483 13.9168158,4.23327149 11.2775828,4.27075035 C9.56268841,4.29574184 7.79055369,4.87130037 6.18121329,3.6264694 C6.01014187,3.49386868 4.82226801,2.48787321 4.38354776,4.09579315 C4.13934797,4.99000576 1.04000746,4.36030738 0.639223856,3.47234683 C0.441936139,3.03495385 0.430209287,2.77114362 0.762011402,2.50870783 C1.07104913,2.26363702 1.37525881,2.45039436 1.59599957,2.67394332 C2.36653043,3.4536074 3.00804826,4.18188054 3.67373126,2.48440357 C3.80548224,2.14977573 5.10372314,2.0685492 5.79215571,2.21502849 C6.87654067,2.44622073 7.0855669,1.9185835 7.15246662,0.920918524 C7.83883407,1.50618201 8.56452197,1.91787951 8.99772971,2.53648174 C9.90276614,3.83059171 10.7871181,2.74405693 11.6756003,2.65381268 C11.8425415,2.63715169 12.1288097,2.5593948 11.9701623,2.32681135 C11.4907393,1.62212174 11.4783153,0.820952564 12.2888561,0.64113452 C13.4001375,0.395361403 14.6611231,0.432158061 15.6696484,1.06116252 C16.3346319,1.47632966 16.5574311,1.90817456 17.4555894,1.16530211 C18.5102967,0.292609671 19.9313952,1.35345065 21.215097,1.35552908 C21.5924801,1.35623307 21.1702974,1.79221807 21.0805315,2.04632336 C20.857699,2.6808826 21.3240152,2.69962203 21.7896652,2.8030744 C22.6340306,2.99122294 22.184202,2.49065563 22.1207497,2.22821984 C21.9828533,1.6547565 22.3242634,1.60059989 22.7416164,1.59991267 C25.1111687,1.5957558 27.3296679,2.46844656 29.6364342,2.83431795 C30.3365746,2.94539682 29.8735892,3.67784359 29.9447025,4.33948951 C30.9614383,3.11966679 31.9761756,2.26779389 32.6674893,4.43876825 C32.7412672,4.66996048 32.9061433,4.93863157 33.1999225,4.64773465 C33.3573042,4.49222087 33.4958667,4.10343643 33.5786378,4.12148863 C33.9063915,4.19230623 33.7525072,4.49082966 33.7490098,4.72411709 C33.7435139,5.03722308 33.9511912,5.21564992 34.2304812,5.10872791 C37.1532844,3.98957513 39.2896787,5.84952193 41.3266477,7.29914568 C43.525162,8.86331795 45.8400887,10.1747929 48.2737595,11.200215 C49.2127205,11.5959555 49.5872723,12.1235927 50.009455,12.8352216 C51.0323528,12.0868011 52.2409444,12.7831435 53.3887484,12.2902194 C56.6489647,10.8912659 59.9641396,9.58396457 63.3429334,8.51202912 C71.3116108,5.98280988 79.5301004,4.84421369 87.8493475,4.20202794 C93.4016744,3.77435667 98.945008,3.95139229 104.492505,3.94374902 C105.658296,3.94167059 106.826917,4.15341941 107.990543,4.28880255 C108.527306,4.35060243 109.275743,4.28325447 109.299226,5.02471896 C109.319877,5.6974778 108.407229,5.21078907 108.102958,5.72593893 C109.822666,6.74303055 111.689429,5.99253159 113.591833,6.45630726 C113.391816,5.28576353 112.292976,5.52181662 111.865963,4.75049979 C112.813751,4.75049979 113.707079,4.59706445 114.527962,4.77896093 C116.994775,5.32604157 119.535365,5.5308511 121.940724,6.36812468 C122.369069,6.51740316 123.02441,6.28968057 122.369069,7.2026326 C121.893093,7.86704419 122.738958,7.76429581 123.029239,7.5719904 C123.793665,7.06656224 124.57591,7.3873115 124.78009,7.95452278 C125.058048,8.72863879 125.827136,9.5437033 125.344333,10.4122372 C125.056716,10.9287615 124.616546,12.1215143 123.691575,10.8662744 C123.545185,10.6684209 123.246576,10.3393244 123.157643,10.3796024 C120.709483,11.4862511 118.606897,8.25306297 116.092453,9.82973937 C115.609649,10.1331404 114.879865,9.69574743 114.278317,9.64368602 C112.757293,9.51038131 111.232772,8.42662896 109.67028,9.70268672 C108.936998,10.3004543 108.356934,9.21044991 107.513901,9.17920636 C104.413231,9.06326663 101.511079,10.057462 98.5096685,10.4545769 C98.1447761,10.5024814 97.7585664,10.3809936 97.3908428,10.4191765 C94.2135642,10.7489435 90.9245362,10.0873143 87.8680002,11.5077897 C86.9773363,11.9215656 86.1392995,11.2786759 85.1803536,11.3418502 C82.0293885,11.5508334 79.0637842,12.8699348 75.8685191,12.7290036 C75.2781295,12.7026209 74.5310244,13.044892 74.0820285,13.7884517 C73.8646919,14.148071 73.0409776,14.3806545 72.55884,14.2938631 C69.2546568,13.7030516 66.4477665,15.2422323 63.5207997,16.2905507 C62.2399291,16.7494823 60.9485664,17.1785783 59.2143698,17.7749547" id="形状"></path>
            </g>
        </g>
    </g>
</svg>

<svg width="126" height="55" xmlns="http://www.w3.org/2000/svg"><path d="M117.397 6.569c-.93-.704-1.932-1.044-3.176-.603.898 1.49 2.132.53 3.176.603m-10.185-.603c-1.92-1.078-3.868-.539-5.812-.334l5.812.334m-48.83 42.26c2.905.69 5.275.147 7.421-1.908-2.802.576-4.95 1.953-7.42 1.907M50.25 16.513c-.329-.839-.877-.697-1.415-.471-1.347.565-2.354 1.786-3.878 2.03-.267.043-.355.404-.236.613.142.248.474.627.627.586.85-.227 2.358-.508 2.388-.873.14-1.723 1.615-1.385 2.514-1.885M99.388 5.57c-4.438-.64-8.91-.036-13.384.196-5.474.283-10.878 1.346-16.209 2.433-5.126 1.045-10.03 3.191-15.025 4.879-.414.14-1.208.156-.946.865.17.456.817.43 1.283.182 1.59-.846 3.306-1.36 4.971-2.015 8.829-3.472 18.087-4.847 27.427-5.79 3.946-.4 7.921-.509 11.883-.75M58.253 46.482c.957-.09 1.701-.133 2.438-.235 5.717-.796 10.795-7.284 7-13.643-2.777-4.655-6.478-8.348-10.493-11.856-1.294-1.13-2.398-.987-3.61-.331-1.832.99-3.608 2.09-5.376 3.195-1.025.64-2.375.967-2.945 2.078-.532 1.037-2.361.592-2.223 2.19-2.362.833-2.1 3.4-3.2 5.07-.33.505-1.301.908-.95 1.748.442 1.06.78 2.154 1.59 3.072 2.373 2.69 5.488 4.265 8.523 5.97 2.938 1.65 6.1 2.52 9.246 2.742m.961-28.707c4.857 3.716 8.562 7.92 11.338 12.847 2.323 4.125 4.021 8.503 2.89 13.442-1.012 4.42-3.962 7.08-7.836 9.005-4.98 2.475-9.826 1.448-14.376-.867-3.663-1.865-7.496-3.622-10.369-6.793-3.24-3.576-6.593-7.047-6.88-12.324-.237-4.325 1.496-7.729 4.393-10.745 2.847-2.966 6.18-5.283 9.651-7.416-1.93-2.837-5.651-2.148-7.734-4.55-.482-.557-2.075-.135-1.925-1.752.034-.37-.379-.264-.562-.124-1.794 1.375-3.208-.577-4.882-.587-1.54-.01-2.88-.965-4.131-1.968-.397-.318-1.221-.374-1.947-.346-1.535.06-3.205.716-4.583-.66-.333-.334-.838.037-1.248.136-.354.086-.668.365-1.062.14-.754-.428-.755-.428-1.042.466-2.29-1.868-4.992-1.446-7.631-1.408-1.715.025-3.487.6-5.097-.645-.17-.132-1.359-1.138-1.797.47-.245.894-3.344.264-3.745-.624-.197-.437-.209-.7.123-.963.309-.245.613-.059.834.165.77.78 1.412 1.508 2.078-.19.131-.334 1.43-.415 2.118-.269 1.085.231 1.294-.296 1.36-1.294.687.585 1.413.997 1.846 1.615.905 1.295 1.79.208 2.678.118.167-.017.453-.095.294-.327-.48-.705-.492-1.506.319-1.686 1.111-.246 2.372-.209 3.38.42.666.415.888.847 1.787.104 1.054-.872 2.475.188 3.76.19.376.001-.046.437-.135.691-.223.635.243.654.709.757.844.188.394-.312.33-.575-.137-.573.204-.627.622-.628 2.37-.004 4.588.868 6.894 1.234.7.111.238.844.309 1.505 1.016-1.22 2.031-2.071 2.722.1.074.231.24.5.533.209.157-.156.296-.545.379-.527.327.071.174.37.17.603-.005.313.202.492.481.385 2.923-1.12 5.06.74 7.097 2.19a36.287 36.287 0 0 0 6.947 3.901c.939.396 1.313.924 1.735 1.635 1.023-.748 2.232-.052 3.38-.545 3.26-1.399 6.575-2.706 9.954-3.778 7.969-2.53 16.187-3.668 24.506-4.31 5.553-.428 11.096-.25 16.644-.258 1.165-.002 2.334.21 3.498.345.536.062 1.285-.006 1.308.736.02.672-.892.186-1.196.7 1.72 1.018 3.586.268 5.489.731-.2-1.17-1.299-.934-1.726-1.706.948 0 1.841-.153 2.662.029 2.467.547 5.007.752 7.413 1.59.428.148 1.083-.08.428.834-.476.664.37.561.66.369.765-.505 1.547-.185 1.751.383.278.774 1.047 1.589.564 2.457-.287.517-.727 1.71-1.652.454-.147-.198-.445-.527-.534-.486-2.449 1.106-4.551-2.127-7.066-.55-.482.303-1.212-.134-1.814-.186-1.52-.134-3.045-1.217-4.608.059-.733.597-1.313-.493-2.156-.524-3.1-.116-6.003.878-9.004 1.276-.365.047-.751-.074-1.12-.036-3.176.33-6.465-.332-9.522 1.089-.89.414-1.729-.23-2.688-.166-3.15.209-6.116 1.528-9.311 1.387-.59-.026-1.338.316-1.787 1.06-.217.36-1.041.592-1.523.505-3.304-.59-6.111.948-9.038 1.997-1.281.458-2.572.888-4.307 1.484" fill="#000" fill-rule="evenodd"/></svg>
